svg/u1f201.svg

<svg viewBox="0 0 128 128" xmlns="http://www.w3.org/2000/svg">
  <g>
    <path d="M116,4H12c-4.42,0-8,3.58-8,8v104c0,4.42,3.58,8,8,8h104c4.42,0,8-3.58,8-8V12 C124,7.58,120.42,4,116,4z" fill="#427687"/>
    <path d="M109.7,4H11.5C7.37,4.03,4.03,7.37,4,11.5v97.9c-0.01,4.14,3.34,7.49,7.48,7.5c0.01,0,0.01,0,0.02,0 h98.1c4.14,0.01,7.49-3.34,7.5-7.48c0-0.01,0-0.01,0-0.02V11.5c0.09-4.05-3.13-7.41-7.18-7.5C109.85,4,109.77,4,109.7,4z" fill="#8CAFBF"/>
    <path d="M51.5,94v-0.5c0-1.1-0.9-2-2-2h-23c-2.4,0-5.2,0.1-7.5,0.2c-1.1,0.06-2.04-0.79-2.1-1.9 c0-0.03,0-0.07,0-0.1v-5.3c0.05-1.12,0.98-2.01,2.1-2c2.1,0.1,4.6,0.3,7.1,0.3h23.5c1.1,0,2-0.9,2-2V46.9c0-1.1-0.9-2-2-2H27.2 c-2.3,0-5,0.1-7.2,0.2c-1.07,0.03-1.97-0.81-2-1.88c0-0.04,0-0.08,0-0.12V38c0-1.1,0.89-2,2-2c0.03,0,0.07,0,0.1,0 c2.4,0.2,5.1,0.3,7.1,0.3H54c1.3,0,2.9,0,4.2-0.1c1.07-0.03,1.97,0.81,2,1.88c0,0.04,0,0.08,0,0.12c0,1.6-0.1,3.5-0.1,5V87 c0,2.1,0.1,4.8,0.2,6.9c0.06,1.1-0.79,2.04-1.9,2.1c-0.03,0-0.07,0-0.1,0h-5C52.27,95.9,51.49,95.03,51.5,94z" fill="#FAFAFA"/>
    <path d="M100.1,94v-0.5c0-1.1-0.9-2-2-2h-23c-2.4,0-5.2,0.1-7.5,0.2c-1.1,0.06-2.04-0.79-2.1-1.9 c0-0.03,0-0.07,0-0.1v-5.3c0.05-1.12,0.98-2.01,2.1-2c2.1,0.1,4.6,0.3,7.1,0.3h23.5c1.1,0,2-0.9,2-2V46.9c0-1.1-0.9-2-2-2H75.7 c-2.3,0-5,0.1-7.2,0.2c-1.1,0.06-2.04-0.79-2.1-1.9c0-0.03,0-0.07,0-0.1V38c0-1.1,0.89-2,2-2c0.03,0,0.07,0,0.1,0 c2.4,0.2,5.1,0.3,7.1,0.3h26.9c1.3,0,2.9,0,4.2-0.1c1.07-0.03,1.97,0.81,2,1.88c0,0.04,0,0.08,0,0.12c-0.1,1.6-0.1,3.5-0.1,5V87 c0,2.1,0.1,4.8,0.2,6.9c0.06,1.1-0.79,2.04-1.9,2.1c-0.03,0-0.07,0-0.1,0h-4.9C100.87,95.9,100.09,95.03,100.1,94z" fill="#FAFAFA"/>
    <path d="M39.7,12.9c0-2.3-1.6-3-10.8-2.7c-7.7,0.3-11.5,1.2-13.8,4 s-2.9,8.5-3,15.3c0,4.8,0,9.3,2.5,9.3c3.4,0,3.4-7.9,6.2-12.3C26.2,17.8,39.7,15.9,39.7,12.9z" opacity="0.5" fill="#B4E1ED" enable-background="new "/>
  </g>
</svg>

<svg viewBox="0 0 128 128" xmlns="http://www.w3.org/2000/svg">
  <defs/>
  <path d="M116,4 L12,4 C7.58,4 4,7.58 4,12 L4,116 C4,120.42 7.58,124 12,124 L116,124 C120.42,124 124,120.42 124,116 L124,12 C124,7.58 120.42,4 116,4 Z" fill="#427687"/>
  <path d="M109.7,4 L11.5,4 C7.37,4.03 4.03,7.37 4,11.5 L4,109.4 C3.99,113.54 7.34,116.89 11.48,116.9 C11.49,116.9 11.49,116.9 11.5,116.9 L109.6,116.9 C113.74,116.91 117.09,113.56 117.1,109.42 C117.1,109.41 117.1,109.41 117.1,109.4 L117.1,11.5 C117.19,7.45 113.97,4.09 109.92,4 C109.85,4 109.77,4 109.7,4 Z" fill="#8CAFBF"/>
  <path d="M51.5,94 L51.5,93.5 C51.5,92.4 50.6,91.5 49.5,91.5 L26.5,91.5 C24.1,91.5 21.3,91.6 19,91.7 C17.9,91.76 16.96,90.91 16.9,89.8 C16.9,89.77 16.9,89.73 16.9,89.7 L16.9,84.4 C16.95,83.28 17.88,82.39 19,82.4 C21.1,82.5 23.6,82.7 26.1,82.7 L49.6,82.7 C50.7,82.7 51.6,81.8 51.6,80.7 L51.6,46.9 C51.6,45.8 50.7,44.9 49.6,44.9 L27.2,44.9 C24.9,44.9 22.2,45 20,45.1 C18.93,45.13 18.03,44.29 18,43.22 C18,43.18 18,43.14 18,43.1 L18,38 C18,36.9 18.89,36 20,36 C20.03,36 20.07,36 20.1,36 C22.5,36.2 25.2,36.3 27.2,36.3 L54,36.3 C55.3,36.3 56.9,36.3 58.2,36.2 C59.27,36.17 60.17,37.01 60.2,38.08 C60.2,38.12 60.2,38.16 60.2,38.2 C60.2,39.8 60.1,41.7 60.1,43.2 L60.1,87 C60.1,89.1 60.2,91.8 60.3,93.9 C60.36,95 59.51,95.94 58.4,96 C58.37,96 58.33,96 58.3,96 L53.3,96 C52.27,95.9 51.49,95.03 51.5,94 Z" fill="#FAFAFA"/>
  <path d="M100.1,94 L100.1,93.5 C100.1,92.4 99.2,91.5 98.1,91.5 L75.1,91.5 C72.7,91.5 69.9,91.6 67.6,91.7 C66.5,91.76 65.56,90.91 65.5,89.8 C65.5,89.77 65.5,89.73 65.5,89.7 L65.5,84.4 C65.55,83.28 66.48,82.39 67.6,82.4 C69.7,82.5 72.2,82.7 74.7,82.7 L98.2,82.7 C99.3,82.7 100.2,81.8 100.2,80.7 L100.2,46.9 C100.2,45.8 99.3,44.9 98.2,44.9 L75.7,44.9 C73.4,44.9 70.7,45 68.5,45.1 C67.4,45.16 66.46,44.31 66.4,43.2 C66.4,43.17 66.4,43.13 66.4,43.1 L66.4,38 C66.4,36.9 67.29,36 68.4,36 C68.43,36 68.47,36 68.5,36 C70.9,36.2 73.6,36.3 75.6,36.3 L102.5,36.3 C103.8,36.3 105.4,36.3 106.7,36.2 C107.77,36.17 108.67,37.01 108.7,38.08 C108.7,38.12 108.7,38.16 108.7,38.2 C108.6,39.8 108.6,41.7 108.6,43.2 L108.6,87 C108.6,89.1 108.7,91.8 108.8,93.9 C108.86,95 108.01,95.94 106.9,96 C106.87,96 106.83,96 106.8,96 L101.9,96 C100.87,95.9 100.09,95.03 100.1,94 Z" fill="#FAFAFA"/>
  <path d="M39.7,12.9 C39.7,10.6 38.1,9.9 28.9,10.2 C21.2,10.5 17.4,11.4 15.1,14.2 C12.8,17 12.2,22.7 12.1,29.5 C12.1,34.3 12.1,38.8 14.6,38.8 C18,38.8 18,30.9 20.8,26.5 C26.2,17.8 39.7,15.9 39.7,12.9 Z" fill="#B4E1ED" opacity="0.5"/>
</svg>
